X: 10
T: Brian Boru's March
Z: Martial
S: https://thesession.org/tunes/271#setting52311
R: jig
M: 6/8
L: 1/8
K: Emin
B<A|:G>FE EB<A|G>FE EA<G|F>ED DA<G|F>ED DB<A|
G>FE EB<A|G>FE E3|EGA B2A|1 G>FE EB<A:|2 G>FE E3||
|:DGA B2A|B2A B2A|DFG A2G|A2G A2G|
EGA B2A|B2A B2A|EGA B2A|1 G>FE E3:|2 G>FE EB<A||

